icons/1_Primary/NETdepot.svg

<svg xmlns="http://www.w3.org/2000/svg" width="1024" height="1024" fill="none">
   <g clip-path="url(#a)">
      <path fill="#56595B" d="M512 1024c282.77 0 512-229.23 512-512S794.77 0 512 0 0 229.23 0 512s229.23 512 512 512Z"/>
      <path fill="#fff" d="m512 406.61 91 52.69v105.16l-91 52.69-91.27-52.69V459.31l91.27-52.7ZM655.5 700l91.27-52.46V542.11l-91.27 52.7V700ZM603 293.46 512 241l-91.27 52.46L512 346.15l91-52.69Zm-234.73 30.35-91 52.46v105.38l91 52.46V429l91.27-52.46-91.27-52.73Zm287.23 0-91 52.46 91 52.69v105.15l91.27-52.46V376.26l-91.27-52.45ZM277.23 647.5l91 52.46V594.81l-91-52.69V647.5Zm143.5-22.35v105.16L512 783l91-52.69V625.15l-91 52.69-91.27-52.69Z"/>
   </g>
   <defs>
      <clipPath id="a">
         <path fill="#fff" d="M0 0h1024v1024H0z"/>
      </clipPath>
   </defs>
</svg>

<svg width="1024" height="1024" viewBox="0 0 1024 1024" fill="none" xmlns="http://www.w3.org/2000/svg">
<g clip-path="url(#clip0_2_2901)">
<path d="M512 1024C794.77 1024 1024 794.77 1024 512C1024 229.23 794.77 0 512 0C229.23 0 0 229.23 0 512C0 794.77 229.23 1024 512 1024Z" fill="#56595B"/>
<path d="M512 406.61L603 459.3V564.46L512 617.15L420.73 564.46V459.31L512 406.61ZM655.5 700L746.77 647.54V542.11L655.5 594.81V700ZM603 293.46L512 241L420.73 293.46L512 346.15L603 293.46ZM368.27 323.81L277.27 376.27V481.65L368.27 534.11V429L459.54 376.54L368.27 323.81ZM655.5 323.81L564.5 376.27L655.5 428.96V534.11L746.77 481.65V376.26L655.5 323.81ZM277.23 647.5L368.23 699.96V594.81L277.23 542.12V647.5ZM420.73 625.15V730.31L512 783L603 730.31V625.15L512 677.84L420.73 625.15Z" fill="white"/>
</g>
<defs>
<clipPath id="clip0_2_2901">
<rect width="1024" height="1024" fill="white"/>
</clipPath>
</defs>
</svg>
